_dev/assets/images/contact-mail.svg

<?xml version="1.0" encoding="UTF-8"?>
<svg width="139px" height="100px" viewBox="0 0 139 100" version="1.1" xmlns='http://www.w3.org/2000/svg' xmlns:xlink='http://www.w3.org/1999/xlink'>
    <g id="Welcome" stroke="none" stroke-width="1" fill="none" fill-rule="evenodd">
        <g id="Desktop" transform="translate(-599.000000, -794.000000)" fill-rule="nonzero" fill="#2B4252">
            <g id="mail" transform="translate(599.000000, 794.000000)">
                <g id="Group" transform="translate(23.867763, 47.762615)">
                    <path d="M88.6436836,29.1307521 C88.0925303,29.1307521 87.541377,28.9293875 87.1112086,28.5221834 L61.3279888,4.36737544 C60.4273237,3.52611869 60.3825145,2.10761663 61.2294086,1.20818788 C62.0763026,0.299809584 63.4877928,0.259536655 64.3974197,1.10974294 L90.1806395,25.2645509 C91.0813046,26.1058077 91.1261138,27.5243097 90.2792197,28.4237385 C89.8356086,28.8935893 89.244127,29.1307521 88.6436836,29.1307521 Z" id="Shape"></path>
                    <path d="M2.57863289,29.1307521 C1.98267039,29.1307521 1.38670789,28.8935893 0.943096711,28.4237385 C0.0962026316,27.5243097 0.141011842,26.1058077 1.04167697,25.2645509 L26.8338586,1.10974294 C27.7390046,0.268486195 29.1594566,0.304284354 30.0018697,1.20818788 C30.8487638,2.10761663 30.8039546,3.52611869 29.9032895,4.36737544 L4.11110789,28.5221834 C3.68093947,28.9293875 3.12978618,29.1307521 2.57863289,29.1307521 Z" id="Shape"></path>
                </g>
                <path d="M127.760021,99.3522374 L11.2023026,99.3522374 C5.02759342,99.3522374 0,94.3360203 0,88.1653126 L0,11.8839099 C0,5.71320216 5.02759342,0.696985084 11.2023026,0.696985084 L127.760021,0.696985084 C133.93473,0.696985084 138.962324,5.71320216 138.962324,11.8839099 L138.962324,88.1653126 C138.962324,94.3360203 133.93473,99.3522374 127.760021,99.3522374 Z M11.2023026,5.171755 C7.49658092,5.171755 4.48092105,8.18327515 4.48092105,11.8839099 L4.48092105,88.1653126 C4.48092105,91.8659473 7.49658092,94.8774675 11.2023026,94.8774675 L127.760021,94.8774675 C131.465743,94.8774675 134.481403,91.8659473 134.481403,88.1653126 L134.481403,11.8839099 C134.481403,8.18327515 131.465743,5.171755 127.760021,5.171755 L11.2023026,5.171755 Z" id="Shape"></path>
                <path d="M69.4811618,61.2674706 C66.5013493,61.2674706 63.5215368,60.2785465 61.2541908,58.305173 L3.71916447,8.18327515 C2.78713289,7.3733418 2.68855263,5.9593145 3.49959934,5.02408759 C4.31960789,4.09333545 5.73109803,4.00831482 6.66312961,4.80929864 L64.1981559,54.9267217 C67.0614645,57.4191685 71.9008592,57.4191685 74.7596868,54.9267217 L132.223018,4.88984449 C133.150569,4.07991114 134.562059,4.16940654 135.386549,5.10463345 C136.197595,6.03986036 136.103496,7.44941288 135.171464,8.26382101 L77.7081329,58.3006982 C75.4363059,60.2785465 72.4609743,61.2674706 69.4811618,61.2674706 Z" id="Shape"></path>
            </g>
        </g>
    </g>
</svg>

<?xml version="1.0" encoding="UTF-8"?>
<svg version="1.1" viewBox="0 0 139 100" xmlns="http://www.w3.org/2000/svg">
<g fill="none" fill-rule="evenodd">
<g transform="translate(-599 -794)" fill="#2B4252" fill-rule="nonzero">
<g transform="translate(599 794)">
<g transform="translate(23.868 47.763)">
<path d="m88.644 29.131c-0.55115 0-1.1023-0.20136-1.5325-0.60857l-25.783-24.155c-0.90067-0.84126-0.94547-2.2598-0.09858-3.1592 0.84689-0.90838 2.2584-0.94865 3.168-0.098445l25.783 24.155c0.90067 0.84126 0.94547 2.2598 0.09858 3.1592-0.44361 0.46985-1.0351 0.70701-1.6355 0.70701z"/>
<path d="m2.5786 29.131c-0.59596 0-1.1919-0.23716-1.6355-0.70701-0.84689-0.89943-0.80208-2.3179 0.09858-3.1592l25.792-24.155c0.90515-0.84126 2.3256-0.80546 3.168 0.098445 0.84689 0.89943 0.80208 2.3179-0.09858 3.1592l-25.792 24.155c-0.43017 0.4072-0.98132 0.60857-1.5325 0.60857z"/>
</g>
<path d="m127.76 99.352h-116.56c-6.1747 0-11.202-5.0162-11.202-11.187v-76.281c0-6.1707 5.0276-11.187 11.202-11.187h116.56c6.1747 0 11.202 5.0162 11.202 11.187v76.281c0 6.1707-5.0276 11.187-11.202 11.187zm-116.56-94.18c-3.7057 0-6.7214 3.0115-6.7214 6.7122v76.281c0 3.7006 3.0157 6.7122 6.7214 6.7122h116.56c3.7057 0 6.7214-3.0115 6.7214-6.7122v-76.281c0-3.7006-3.0157-6.7122-6.7214-6.7122h-116.56z"/>
<path d="m69.481 61.267c-2.9798 0-5.9596-0.98892-8.227-2.9623l-57.535-50.122c-0.93203-0.80993-1.0306-2.224-0.21957-3.1592 0.82001-0.93075 2.2315-1.0158 3.1635-0.21479l57.535 50.117c2.8633 2.4924 7.7027 2.4924 10.562 0l57.463-50.037c0.92755-0.80993 2.339-0.72044 3.1635 0.21479 0.81105 0.93523 0.71695 2.3448-0.21508 3.1592l-57.463 50.037c-2.2718 1.9778-5.2472 2.9668-8.227 2.9668z"/>
</g>
</g>
</g>
</svg>
